shader_type spatial;
render_mode blend_mix, depth_draw_opaque, cull_back, diffuse_burley, specular_schlick_ggx, unshaded;

uniform vec4 albedo : source_color;
uniform sampler2D texture_albedo : source_color, filter_linear_mipmap, repeat_enable;
uniform float point_size : hint_range(0.1, 128.0, 0.1);

uniform vec3 uv1_scale;
uniform vec3 uv1_offset;

void vertex() {
	UV = UV * uv1_scale.xy + uv1_offset.xy;
}

void fragment() {
	vec2 base_uv = UV;

	vec4 albedo_tex = texture(texture_albedo, base_uv);

	// Vertex Color Use as Albedo: Enabled
	albedo_tex *= COLOR;
	ALBEDO = albedo.rgb * albedo_tex.rgb;
}
